Newaita/actions/22/gnumeric-column-size.svg

<svg height="22" viewBox="0 0 22 22" width="22" xmlns="http://www.w3.org/2000/svg"><g fill="#424242"><path d="m8.199219 2.21875v17.738281c0 .125.101562.226563.226562.226563h.441407c.125 0 .230468-.101563.230468-.226563v-17.738281c0-.125-.105468-.226562-.230468-.226562h-.441407c-.125 0-.226562.101562-.226562.226562zm0 0"/><path d="m12.746094 2.21875v17.738281c0 .125.101562.226563.226562.226563h.445313c.125 0 .226562-.101563.226562-.226563v-17.738281c0-.125-.101562-.226562-.226562-.226562h-.445313c-.125 0-.226562.101562-.226562.226562zm0 0"/><path d="m15.453125 14.269531v-6.367187l4.546875 3.183594zm0 0"/><path d="m6.378906 14.269531v-6.367187l-4.546875 3.183594zm0 0"/><path d="m8.414062 1.992188h5.003907c.125 0 .226562.101562.226562.226562v.453125c0 .128906-.101562.230469-.226562.230469h-5.003907c-.125 0-.226562-.101563-.226562-.230469v-.453125c0-.125.101562-.226562.226562-.226562zm0 0"/><path d="m8.414062 19.273438h5.003907c.125 0 .226562.101562.226562.226562v.457031c0 .125-.101562.226563-.226562.226563h-5.003907c-.125 0-.226562-.101563-.226562-.226563v-.457031c0-.125.101562-.226562.226562-.226562zm0 0"/><path d="m8.414062 10.632812h5.003907c.125 0 .226562.101563.226562.226563v.453125c0 .128906-.101562.230469-.226562.230469h-5.003907c-.125 0-.226562-.101563-.226562-.230469v-.453125c0-.125.101562-.226563.226562-.226563zm0 0"/><path d="m8.414062 14.726562h5.003907c.125 0 .226562.101563.226562.226563v.453125c0 .125-.101562.230469-.226562.230469h-5.003907c-.125 0-.226562-.105469-.226562-.230469v-.453125c0-.125.101562-.226563.226562-.226563zm0 0"/><path d="m8.414062 6.539062h5.003907c.125 0 .226562.101563.226562.226563v.457031c0 .125-.101562.226563-.226562.226563h-5.003907c-.125 0-.226562-.101563-.226562-.226563v-.457031c0-.125.101562-.226563.226562-.226563zm0 0"/></g></svg>

<?xml version="1.0" encoding="UTF-8"?>
<svg xmlns="http://www.w3.org/2000/svg" xmlns:xlink="http://www.w3.org/1999/xlink" width="22px" height="22px" viewBox="0 0 22 22" version="1.1">
<g id="surface1">
<path style=" stroke:none;fill-rule:nonzero;fill:rgb(25.882354%,25.882354%,25.882354%);fill-opacity:1;" d="M 8.199219 2.21875 L 8.199219 19.957031 C 8.199219 20.082031 8.300781 20.183594 8.425781 20.183594 L 8.867188 20.183594 C 8.992188 20.183594 9.097656 20.082031 9.097656 19.957031 L 9.097656 2.21875 C 9.097656 2.09375 8.992188 1.992188 8.867188 1.992188 L 8.425781 1.992188 C 8.300781 1.992188 8.199219 2.09375 8.199219 2.21875 Z M 8.199219 2.21875 "/>
<path style=" stroke:none;fill-rule:nonzero;fill:rgb(25.882354%,25.882354%,25.882354%);fill-opacity:1;" d="M 12.746094 2.21875 L 12.746094 19.957031 C 12.746094 20.082031 12.847656 20.183594 12.972656 20.183594 L 13.417969 20.183594 C 13.542969 20.183594 13.644531 20.082031 13.644531 19.957031 L 13.644531 2.21875 C 13.644531 2.09375 13.542969 1.992188 13.417969 1.992188 L 12.972656 1.992188 C 12.847656 1.992188 12.746094 2.09375 12.746094 2.21875 Z M 12.746094 2.21875 "/>
<path style=" stroke:none;fill-rule:nonzero;fill:rgb(25.882354%,25.882354%,25.882354%);fill-opacity:1;" d="M 15.453125 14.269531 L 15.453125 7.902344 L 20 11.085938 Z M 15.453125 14.269531 "/>
<path style=" stroke:none;fill-rule:nonzero;fill:rgb(25.882354%,25.882354%,25.882354%);fill-opacity:1;" d="M 6.378906 14.269531 L 6.378906 7.902344 L 1.832031 11.085938 Z M 6.378906 14.269531 "/>
<path style=" stroke:none;fill-rule:nonzero;fill:rgb(25.882354%,25.882354%,25.882354%);fill-opacity:1;" d="M 8.414062 1.992188 L 13.417969 1.992188 C 13.542969 1.992188 13.644531 2.09375 13.644531 2.21875 L 13.644531 2.671875 C 13.644531 2.800781 13.542969 2.902344 13.417969 2.902344 L 8.414062 2.902344 C 8.289062 2.902344 8.1875 2.800781 8.1875 2.671875 L 8.1875 2.21875 C 8.1875 2.09375 8.289062 1.992188 8.414062 1.992188 Z M 8.414062 1.992188 "/>
<path style=" stroke:none;fill-rule:nonzero;fill:rgb(25.882354%,25.882354%,25.882354%);fill-opacity:1;" d="M 8.414062 19.273438 L 13.417969 19.273438 C 13.542969 19.273438 13.644531 19.375 13.644531 19.5 L 13.644531 19.957031 C 13.644531 20.082031 13.542969 20.183594 13.417969 20.183594 L 8.414062 20.183594 C 8.289062 20.183594 8.1875 20.082031 8.1875 19.957031 L 8.1875 19.5 C 8.1875 19.375 8.289062 19.273438 8.414062 19.273438 Z M 8.414062 19.273438 "/>
<path style=" stroke:none;fill-rule:nonzero;fill:rgb(25.882354%,25.882354%,25.882354%);fill-opacity:1;" d="M 8.414062 10.632812 L 13.417969 10.632812 C 13.542969 10.632812 13.644531 10.734375 13.644531 10.859375 L 13.644531 11.3125 C 13.644531 11.441406 13.542969 11.542969 13.417969 11.542969 L 8.414062 11.542969 C 8.289062 11.542969 8.1875 11.441406 8.1875 11.3125 L 8.1875 10.859375 C 8.1875 10.734375 8.289062 10.632812 8.414062 10.632812 Z M 8.414062 10.632812 "/>
<path style=" stroke:none;fill-rule:nonzero;fill:rgb(25.882354%,25.882354%,25.882354%);fill-opacity:1;" d="M 8.414062 14.726562 L 13.417969 14.726562 C 13.542969 14.726562 13.644531 14.828125 13.644531 14.953125 L 13.644531 15.40625 C 13.644531 15.53125 13.542969 15.636719 13.417969 15.636719 L 8.414062 15.636719 C 8.289062 15.636719 8.1875 15.53125 8.1875 15.40625 L 8.1875 14.953125 C 8.1875 14.828125 8.289062 14.726562 8.414062 14.726562 Z M 8.414062 14.726562 "/>
<path style=" stroke:none;fill-rule:nonzero;fill:rgb(25.882354%,25.882354%,25.882354%);fill-opacity:1;" d="M 8.414062 6.539062 L 13.417969 6.539062 C 13.542969 6.539062 13.644531 6.640625 13.644531 6.765625 L 13.644531 7.222656 C 13.644531 7.347656 13.542969 7.449219 13.417969 7.449219 L 8.414062 7.449219 C 8.289062 7.449219 8.1875 7.347656 8.1875 7.222656 L 8.1875 6.765625 C 8.1875 6.640625 8.289062 6.539062 8.414062 6.539062 Z M 8.414062 6.539062 "/>
</g>
</svg>
